brandFactory_export/1.Light/Pin chincheta _1Light.svg

<?xml version="1.0" encoding="UTF-8"?>
<svg width="24px" height="24px" viewBox="0 0 24 24" version="1.1" xmlns="http://www.w3.org/2000/svg" xmlns:xlink="http://www.w3.org/1999/xlink">
    <title>1.Light/Pin chincheta _1Light</title>
    <g id="Symbols" stroke="none" stroke-width="1" fill="none" fill-rule="evenodd">
        <g id="1.Light/Pin-chincheta-_1Light" fill="#5CB615" fill-rule="nonzero">
            <path d="M20.1243697,9.36470588 C20.0067227,9.37815126 19.8991597,9.42857143 19.8184874,9.51260504 L16.2386555,13.112605 C16.1142857,13.2403361 16.0638655,13.4218487 16.1042017,13.5932773 C16.605042,15.7714286 15.8655462,17.8756303 13.8420168,19.9159664 C13.7983193,19.9630252 13.7344538,19.989916 13.6672269,19.989916 C13.6033613,19.989916 13.5394958,19.9630252 13.492437,19.9159664 L8.66554622,15.0521008 C8.65882353,15.0420168 8.65546218,15.0319328 8.6487395,15.0218487 C8.63865546,15.0117647 8.62857143,15.0084034 8.61848739,15.0016807 L3.87226891,10.2252101 C3.78151261,10.1310924 3.78151261,9.97983193 3.8789916,9.88907563 L3.91596639,9.85210084 C5.91260504,7.83865546 8.01344538,7.07563025 10.1579832,7.59327731 C10.3327731,7.63361345 10.5109244,7.58319328 10.6352941,7.45882353 L14.2117647,3.85546218 C14.2957983,3.77142857 14.3462185,3.6605042 14.3596639,3.54285714 C14.4436975,2.66218487 14.8739496,1.82521008 15.6773109,1.05210084 L22.6352941,8.04369748 C21.8521008,8.82689076 21.0084034,9.27058824 20.1243697,9.36470588 M23.3378151,7.29747899 L16.3966387,0.322689076 C16.194958,0.117647059 15.9226891,0.00336134454 15.6403361,0 C15.3848739,0 15.1462185,0.0974789916 14.9210084,0.322689076 C14.0336134,1.21344538 13.512605,2.19831933 13.3647059,3.25042017 L10.107563,6.52773109 C8.38655462,6.20168067 5.86554622,6.43361345 3.18991597,9.12605042 L3.54957983,9.48907563 L3.14957983,9.16302521 C2.91092437,9.40168067 2.77983193,9.72436975 2.77983193,10.0571429 C2.77983193,10.3932773 2.91092437,10.712605 3.14621849,10.9512605 L7.54957983,15.3848739 L0.18487395,22.7462185 C-0.0168067227,22.9445378 -0.0168067227,23.2705882 0.181512605,23.4722689 C0.379831933,23.6739496 0.699159664,23.6773109 0.900840336,23.4789916 L0.904201681,23.4756303 L8.2789916,16.1142857 L12.7731092,20.6420168 C13.0117647,20.8840336 13.3310924,21.0184874 13.6672269,21.0184874 C14.0033613,21.0184874 14.3193277,20.8840336 14.6252101,20.5781513 C16.7731092,18.4201681 17.6235294,16.0907563 17.1563025,13.6470588 L20.4134454,10.3697479 C21.4655462,10.2117647 22.4537815,9.67394958 23.3747899,8.74957983 C23.5563025,8.56470588 23.6571429,8.31932773 23.6571429,8.0605042 C23.6571429,7.77142857 23.5394958,7.49915966 23.3378151,7.29747899" id="Pin-chincheta-_1Light"></path>
        </g>
    </g>
</svg>

<svg width="24" height="24" viewBox="0 0 24 24" xmlns="http://www.w3.org/2000/svg"><path d="M20.124 9.365a.498.498 0 00-.306.148l-3.58 3.6a.52.52 0 00-.134.48c.501 2.178-.238 4.283-2.262 6.323a.238.238 0 01-.175.074.25.25 0 01-.175-.074l-4.826-4.864c-.007-.01-.01-.02-.017-.03-.01-.01-.02-.014-.03-.02l-4.747-4.777a.235.235 0 01.007-.336l.037-.037c1.997-2.013 4.097-2.776 6.242-2.259.175.04.353-.01.477-.134l3.577-3.604a.525.525 0 00.148-.312c.084-.88.514-1.718 1.317-2.49l6.958 6.99c-.783.784-1.627 1.228-2.51 1.322m3.213-2.068L16.397.323A1.079 1.079 0 0015.64 0c-.255 0-.494.097-.719.323-.887.89-1.408 1.875-1.556 2.927l-3.257 3.278c-1.721-.326-4.242-.094-6.918 2.598l.36.363-.4-.326a1.27 1.27 0 00-.003 1.788l4.403 4.434-7.365 7.361a.514.514 0 00-.003.726.506.506 0 00.719.007l.003-.003 7.375-7.362 4.494 4.528c.239.242.558.376.894.376.336 0 .652-.134.958-.44 2.148-2.158 2.999-4.487 2.531-6.93l3.257-3.278c1.053-.158 2.04-.696 2.962-1.62a.98.98 0 00.282-.69c0-.289-.118-.56-.32-.763" fill="#5CB615" fill-rule="nonzero"/></svg>
